SVG_Azure_Grouped/AI/Machine Learning Studio.svg

<?xml version="1.0" encoding="UTF-8" standalone="no"?>
<!-- Generated by Microsoft Visio, SVG Export Machine Learning Studio.svg Page-1 -->

<svg
   xmlns:dc="http://purl.org/dc/elements/1.1/"
   xmlns:cc="http://creativecommons.org/ns#"
   xmlns:rdf="http://www.w3.org/1999/02/22-rdf-syntax-ns#"
   xmlns:svg="http://www.w3.org/2000/svg"
   xmlns="http://www.w3.org/2000/svg"
   xmlns:sodipodi="http://sodipodi.sourceforge.net/DTD/sodipodi-0.dtd"
   xmlns:inkscape="http://www.inkscape.org/namespaces/inkscape"
   width="0.78482544in"
   height="0.79041618in"
   viewBox="0 0 56.507594 56.909678"
   xml:space="preserve"
   class="st5"
   version="1.1"
   id="svg47"
   sodipodi:docname="Machine Learning Studio.svg"
   style="font-size:12px;overflow:visible;color-interpolation-filters:sRGB;fill:none;fill-rule:evenodd;stroke-linecap:square;stroke-miterlimit:3"
   inkscape:version="0.92.5 (2060ec1f9f, 2020-04-08)"><metadata
   id="metadata51"><rdf:RDF><cc:Work
       rdf:about=""><dc:format>image/svg+xml</dc:format><dc:type
         rdf:resource="http://purl.org/dc/dcmitype/StillImage" /></cc:Work></rdf:RDF></metadata><sodipodi:namedview
   pagecolor="#ffffff"
   bordercolor="#666666"
   borderopacity="1"
   objecttolerance="10"
   gridtolerance="10"
   guidetolerance="10"
   inkscape:pageopacity="0"
   inkscape:pageshadow="2"
   inkscape:window-width="640"
   inkscape:window-height="480"
   id="namedview49"
   showgrid="false"
   inkscape:zoom="1.4024619"
   inkscape:cx="37.673952"
   inkscape:cy="37.942291"
   inkscape:window-x="0"
   inkscape:window-y="0"
   inkscape:window-maximized="0"
   inkscape:current-layer="svg47" />
	<style
   type="text/css"
   id="style2">
	<![CDATA[
		.st1 {fill:#f2f2f2;stroke:none;stroke-linecap:butt;stroke-width:34.6502}
		.st2 {fill:#0078d4;stroke:none;stroke-linecap:butt;stroke-width:34.6502}
		.st3 {fill:url(#grad0-9);stroke:none;stroke-linecap:butt;stroke-width:34.6502}
		.st4 {fill:#ffffff;stroke:none;stroke-linecap:butt;stroke-width:34.6502}
		.st5 {fill:none;fill-rule:evenodd;font-size:12px;overflow:visible;stroke-linecap:square;stroke-miterlimit:3}
	]]>
	</style>

	<defs
   id="Patterns_And_Gradients">
		<linearGradient
   id="grad0-9"
   x1="0.36239813"
   y1="92.321592"
   x2="35.732951"
   y2="92.321592"
   gradientTransform="scale(1.0117435,0.98839282)"
   gradientUnits="userSpaceOnUse">
			<stop
   offset="0"
   stop-color="#32d4f5"
   stop-opacity="1"
   id="stop4" />
			<stop
   offset="0.32"
   stop-color="#31d1f3"
   stop-opacity="1"
   id="stop6" />
			<stop
   offset="0.53"
   stop-color="#2ec9eb"
   stop-opacity="1"
   id="stop8" />
			<stop
   offset="0.7"
   stop-color="#29bade"
   stop-opacity="1"
   id="stop10" />
			<stop
   offset="0.86"
   stop-color="#22a5cb"
   stop-opacity="1"
   id="stop12" />
			<stop
   offset="1"
   stop-color="#198ab3"
   stop-opacity="1"
   id="stop14" />
			<stop
   offset="1"
   stop-color="#198ab3"
   stop-opacity="1"
   id="stop16" />
		</linearGradient>
	</defs>
	<g
   id="g45"
   transform="translate(-34.649954,-34.650169)">
		<title
   id="title20">Page-1</title>
		<g
   id="group18356-1"
   transform="translate(34.2833,-34.6502)">
			<title
   id="title22">Machine Learning Studio.18356</title>
			<g
   id="shape18357-2"
   transform="translate(20.1054,-19.5177)">
				<title
   id="title24">path19</title>
				<path
   d="M 28.8,126.21 A 20.8413,20.9213 0 0 1 3.27,93.15 L 3.5,92.99 a 20.8413,20.9213 0 0 1 25.3,33.22 z"
   class="st1"
   id="path26"
   inkscape:connector-curvature="0"
   style="fill:#f2f2f2;stroke:none;stroke-width:34.65019989;stroke-linecap:butt" />
			</g>
			<g
   id="shape18358-4"
   transform="translate(18.0447,-18.0137)">
				<title
   id="title29">path21</title>
				<path
   d="M 34.72,95.69 A 20.8413,20.9213 -180 0 0 5.56,91.48 L 5.33,91.65 A 20.8413,20.9213 -180 0 0 30.86,124.7 20.9411,21.0216 -180 0 0 34.72,95.69 Z M 0,106.82 a 18.1446,18.2143 0 0 1 2.03,-7.08 h 5.03 a 35.7564,35.8938 -180 0 0 -0.97,7.08 z m 9.99,-7.08 h 6.92 v 7.08 H 8.79 a 30.7625,30.8807 0 0 1 1.06,-7.08 z m 9.59,0 h 6.92 a 30.7625,30.8807 0 0 1 1.07,7.08 h -7.99 z m -2.67,9.76 v 7.11 H 9.85 A 31.3285,31.4488 0 0 1 8.79,109.5 Z m 2.67,0 h 7.99 a 31.3285,31.4488 0 0 1 -1.07,7.11 h -7.06 z m 10.68,0 h 6.06 a 18.8437,18.9161 0 0 1 -2,7.11 h -5.19 a 33.7256,33.8551 -180 0 0 1,-7.11 z m 0,-2.68 a 33.2928,33.4207 -180 0 0 -1,-7.08 h 5.06 a 17.8449,17.9135 0 0 1 2,7.08 z m 2.37,-9.79 h -4.3 a 20.6748,20.7542 -180 0 0 -2.93,-5.55 18.311,18.3814 0 0 1 7.09,5.55 z m -7.06,0 h -5.99 v -6.68 a 10.8867,10.9286 0 0 1 5.86,6.68 z m -8.66,-6.68 v 6.68 h -6.12 a 10.8867,10.9286 0 0 1 5.99,-6.82 z m -9.92,3.4 a 17.7783,17.8466 0 0 1 3.66,-2.13 20.1754,20.2529 -180 0 0 -2.76,5.41 H 3.73 A 16.8128,16.8774 0 0 1 6.99,93.75 Z M 0,109.5 h 6.09 a 36.0893,36.228 -180 0 0 0.97,7.11 H 2.03 A 17.512,17.5793 0 0 1 0,109.5 Z m 3.76,10.02 h 4.13 a 20.3752,20.4534 -180 0 0 2.93,5.58 18.1113,18.1808 0 0 1 -7.06,-5.74 z m 7.03,0 h 5.99 v 6.69 a 10.8867,10.9286 0 0 1 -5.99,-6.92 z m 8.65,6.69 v -6.69 h 6 a 10.8867,10.9286 0 0 1 -6,6.59 z m 9.79,-3.78 a 16.9127,16.9777 0 0 1 -3.86,2.31 19.11,19.1835 -180 0 0 2.96,-5.59 h 4.16 a 18.9103,18.9829 0 0 1 -3.26,3.28 z"
   class="st2"
   id="path31"
   inkscape:connector-curvature="0"
   style="fill:#0078d4;stroke:none;stroke-width:34.65019989;stroke-linecap:butt" />
			</g>
			<g
   id="shape18359-6">
				<title
   id="title34">path23</title>
				<path
   d="M 34.82,126.21 H 1.66 C 0.63,126.21 0,124.5 0.6,123.63 l 11.42,-16.71 a 1.19854,1.20314 -180 0 0 0.23,-0.73 V 95.13 A 0.665855,0.668413 -180 0 0 11.584145,94.461586 L 10.99,94.46 a 1.26512,1.26998 0 0 1 -1.3,-1.31 v -0.6 a 1.29842,1.30341 0 0 1 1.3,-1.3 h 14.55 a 1.33171,1.33683 0 0 1 1.29,1.3 v 0.6 a 1.29842,1.30341 0 0 1 -1.29,1.24 H 24.9 a 0.632562,0.634992 -180 0 0 -0.632563,0.668413 L 24.27,106.15 a 1.19854,1.20314 -180 0 0 0.23,0.74 l 11.42,16.71 c 0.6,0.87 -0.03,2.61 -1.1,2.61 z"
   class="st3"
   id="path36"
   inkscape:connector-curvature="0"
   style="fill:url(#grad0-9);stroke:none;stroke-width:34.65019989;stroke-linecap:butt" />
			</g>
			<g
   id="shape18360-10"
   transform="translate(6.08883,-3.27522)">
				<title
   id="title39">path25</title>
				<path
   d="m 0.07,125.07 8.22,-12.03 a 2.86318,2.87418 -180 0 0 0.54,-1.71 v -4.84 a 0.96549,0.969199 0 0 1 0.965491,-0.9692 L 14.45,105.52 a 0.96549,0.969199 0 0 1 0.965489,0.9692 L 15.42,111.67 a 1.96427,1.97182 -180 0 0 0.33,1.13 l 8.42,12.27 a 0.732441,0.735254 0 0 1 -0.599269,1.1363 L 0.67,126.21 a 0.699148,0.701834 0 0 1 -0.599269,-1.1363 z"
   class="st4"
   id="path41"
   inkscape:connector-curvature="0"
   style="fill:#ffffff;stroke:none;stroke-width:34.65019989;stroke-linecap:butt" />
			</g>
		</g>
	</g>
</svg>

<?xml version="1.0" encoding="UTF-8" standalone="no"?>
<!DOCTYPE svg PUBLIC "-//W3C//DTD SVG 1.1//EN" "http://www.w3.org/Graphics/SVG/1.1/DTD/svg11.dtd">
<!-- Generated by Microsoft Visio, SVG Export Machine Learning Studio.svg Page-1 -->
<svg xmlns="http://www.w3.org/2000/svg" xmlns:xlink="http://www.w3.org/1999/xlink" xmlns:ev="http://www.w3.org/2001/xml-events"
		width="1.74737in" height="1.75287in" viewBox="0 0 125.811 126.206" xml:space="preserve" color-interpolation-filters="sRGB"
		class="st5">
	<style type="text/css">
	<![CDATA[
		.st1 {fill:#f2f2f2;stroke:none;stroke-linecap:butt;stroke-width:34.6502}
		.st2 {fill:#0078d4;stroke:none;stroke-linecap:butt;stroke-width:34.6502}
		.st3 {fill:url(#grad0-9);stroke:none;stroke-linecap:butt;stroke-width:34.6502}
		.st4 {fill:#ffffff;stroke:none;stroke-linecap:butt;stroke-width:34.6502}
		.st5 {fill:none;fill-rule:evenodd;font-size:12px;overflow:visible;stroke-linecap:square;stroke-miterlimit:3}
	]]>
	</style>

	<defs id="Patterns_And_Gradients">
		<linearGradient id="grad0-9" x1="0" y1="0" x2="1" y2="0" gradientTransform="rotate(89.427136959118 0.5 0.5)">
			<stop offset="0" stop-color="#32d4f5" stop-opacity="1"/>
			<stop offset="0.32" stop-color="#31d1f3" stop-opacity="1"/>
			<stop offset="0.53" stop-color="#2ec9eb" stop-opacity="1"/>
			<stop offset="0.7" stop-color="#29bade" stop-opacity="1"/>
			<stop offset="0.86" stop-color="#22a5cb" stop-opacity="1"/>
			<stop offset="1" stop-color="#198ab3" stop-opacity="1"/>
			<stop offset="1" stop-color="#198ab3" stop-opacity="1"/>
		</linearGradient>
	</defs>
	<g>
		<title>Page-1</title>
		<g id="group17926-1" transform="translate(34.2833,-34.6502)">
			<title>Machine Learning Studio.17926</title>
			<g id="shape17927-2" transform="translate(20.1054,-19.5177)">
				<title>path19</title>
				<path d="M28.8 126.21 A20.8413 20.9213 0 0 1 3.27 93.15 L3.5 92.99 A20.8413 20.9213 0 0 1 28.8 126.21 Z"
						class="st1"/>
			</g>
			<g id="shape17928-4" transform="translate(18.0447,-18.0137)">
				<title>path21</title>
				<path d="M34.72 95.69 A20.8413 20.9213 -180 0 0 5.56 91.48 L5.33 91.65 A20.8413 20.9213 -180 0 0 30.86 124.7 A20.9411
							 21.0216 -180 0 0 34.72 95.69 ZM0 106.82 A18.1446 18.2143 0 0 1 2.03 99.74 L7.06 99.74 A35.7564 35.8938
							 -180 0 0 6.09 106.82 L0 106.82 ZM9.99 99.74 L16.91 99.74 L16.91 106.82 L8.79 106.82 A30.7625 30.8807
							 0 0 1 9.85 99.74 L9.99 99.74 ZM19.58 99.74 L26.5 99.74 A30.7625 30.8807 0 0 1 27.57 106.82 L19.58 106.82
							 L19.58 99.74 ZM16.91 109.5 L16.91 116.61 L9.85 116.61 A31.3285 31.4488 0 0 1 8.79 109.5 L16.91 109.5
							 ZM19.58 109.5 L27.57 109.5 A31.3285 31.4488 0 0 1 26.5 116.61 L19.44 116.61 L19.58 109.5 ZM30.26 109.5
							 L36.32 109.5 A18.8437 18.9161 0 0 1 34.32 116.61 L29.13 116.61 A33.7256 33.8551 -180 0 0 30.13 109.5
							 L30.26 109.5 ZM30.26 106.82 A33.2928 33.4207 -180 0 0 29.26 99.74 L34.32 99.74 A17.8449 17.9135 0 0
							 1 36.32 106.82 L30.26 106.82 ZM32.63 97.03 L28.33 97.03 A20.6748 20.7542 -180 0 0 25.4 91.48 A18.311
							 18.3814 0 0 1 32.49 97.03 L32.63 97.03 ZM25.57 97.03 L19.58 97.03 L19.58 90.35 A10.8867 10.9286 0 0
							 1 25.44 97.03 L25.57 97.03 ZM16.91 90.35 L16.91 97.03 L10.79 97.03 A10.8867 10.9286 0 0 1 16.78 90.21
							 L16.91 90.35 ZM6.99 93.75 A17.7783 17.8466 0 0 1 10.65 91.62 A20.1754 20.2529 -180 0 0 7.89 97.03 L3.73
							 97.03 A16.8128 16.8774 0 0 1 6.99 93.75 ZM0 109.5 L6.09 109.5 A36.0893 36.228 -180 0 0 7.06 116.61 L2.03
							 116.61 A17.512 17.5793 0 0 1 -0 109.5 ZM3.76 119.52 L7.89 119.52 A20.3752 20.4534 -180 0 0 10.82 125.1
							 A18.1113 18.1808 0 0 1 3.76 119.36 L3.76 119.52 ZM10.79 119.52 L16.78 119.52 L16.78 126.21 A10.8867
							 10.9286 0 0 1 10.79 119.29 L10.79 119.52 ZM19.44 126.21 L19.44 119.52 L25.44 119.52 A10.8867 10.9286
							 0 0 1 19.44 126.11 L19.44 126.21 ZM29.23 122.43 A16.9127 16.9777 0 0 1 25.37 124.74 A19.11 19.1835 -180
							 0 0 28.33 119.15 L32.49 119.15 A18.9103 18.9829 0 0 1 29.23 122.43 Z" class="st2"/>
			</g>
			<g id="shape17929-6">
				<title>path23</title>
				<path d="M34.82 126.21 L1.66 126.21 C0.63 126.21 0 124.5 0.6 123.63 L12.02 106.92 A1.19854 1.20314 -180 0 0 12.25
							 106.19 L12.25 95.13 a0.665855 0.668413 -180 0 0 -0.665855 -0.668414 L10.99 94.46 A1.26512 1.26998 0
							 0 1 9.69 93.15 L9.69 92.55 A1.29842 1.30341 0 0 1 10.99 91.25 L25.54 91.25 A1.33171 1.33683 0 0 1 26.83
							 92.55 L26.83 93.15 A1.29842 1.30341 0 0 1 25.54 94.39 L24.9 94.39 a0.632562 0.634992 -180 0 0 -0.632563
							 0.668413 L24.27 106.15 A1.19854 1.20314 -180 0 0 24.5 106.89 L35.92 123.6 C36.52 124.47 35.89 126.21
							 34.82 126.21 Z" class="st3"/>
			</g>
			<g id="shape17930-10" transform="translate(6.08883,-3.27522)">
				<title>path25</title>
				<path d="M0.07 125.07 L8.29 113.04 A2.86318 2.87418 -180 0 0 8.83 111.33 L8.83 106.49 a0.96549 0.969199 0 0 1 0.965491
							 -0.969198 L14.45 105.52 a0.96549 0.969199 0 0 1 0.965489 0.969198 L15.42 111.67 A1.96427 1.97182 -180
							 0 0 15.75 112.8 L24.17 125.07 a0.732441 0.735254 0 0 1 -0.599269 1.1363 L0.67 126.21 a0.699148 0.701834
							 0 0 1 -0.599269 -1.1363 Z" class="st4"/>
			</g>
		</g>
	</g>
</svg>
